Anomy/Resources/Images/icondelet.svg

<?xml version="1.0" encoding="UTF-8" standalone="no"?><!DOCTYPE svg PUBLIC "-//W3C//DTD SVG 1.1//EN" "http://www.w3.org/Graphics/SVG/1.1/DTD/svg11.dtd"><svg width="100%" height="100%" viewBox="0 0 48 48" version="1.1" xmlns="http://www.w3.org/2000/svg" xmlns:xlink="http://www.w3.org/1999/xlink" xml:space="preserve" xmlns:serif="http://www.serif.com/" style="fill-rule:evenodd;clip-rule:evenodd;stroke-linejoin:round;stroke-miterlimit:2;"><path d="M13.05,42c-0.833,0 -1.542,-0.292 -2.125,-0.875c-0.583,-0.583 -0.875,-1.292 -0.875,-2.125l0,-28.5l-2.05,0l0,-3l9.4,0l0,-1.5l13.2,0l-0,1.5l9.4,0l0,3l-2.05,0l0,28.5c0,0.8 -0.3,1.5 -0.9,2.1c-0.6,0.6 -1.3,0.9 -2.1,0.9l-21.9,0Zm21.9,-31.5l-21.9,0l0,28.5l21.9,0l0,-28.5Zm-16.6,24.2l3,0l0,-19.95l-3,-0l0,19.95Zm8.3,0l3,0l0,-19.95l-3,-0l0,19.95Zm-13.6,-24.2l0,28.5l0,-28.5Z" style="fill:#46086f;fill-rule:nonzero;"/></svg>

<svg xmlns="http://www.w3.org/2000/svg" height="48" width="48"><path d="M13.05 42q-1.25 0-2.125-.875T10.05 39V10.5H8v-3h9.4V6h13.2v1.5H40v3h-2.05V39q0 1.2-.9 2.1-.9.9-2.1.9Zm21.9-31.5h-21.9V39h21.9Zm-16.6 24.2h3V14.75h-3Zm8.3 0h3V14.75h-3Zm-13.6-24.2V39Z"/></svg>
